icons/rheumatology.svg

<svg width="48" height="48" viewBox="0 0 48 48" fill="none" xmlns="http://www.w3.org/2000/svg">
<path fill-rule="evenodd" clip-rule="evenodd" d="M6 9C6 7.34315 7.34315 6 9 6H39C40.6569 6 42 7.34315 42 9V39C42 40.6569 40.6569 42 39 42H9C7.34315 42 6 40.6569 6 39V9ZM38 24C38 18.0296 34.2627 12.9321 29 10.9193V8H39C39.5523 8 40 8.44771 40 9V39C40 39.5523 39.5523 40 39 40H29V37.0808C34.2627 35.0679 38 29.9704 38 24ZM27 8L27 15.6815C27 16.5241 27.3423 17.3305 27.9484 17.9157L28.3693 18.322C29.3873 19.305 29.4015 20.9317 28.4009 21.9323C27.6306 22.7026 26.4538 22.8936 25.4795 22.4064L25.2742 22.3037C24.472 21.9026 23.5278 21.9026 22.7257 22.3037L22.5204 22.4064C21.546 22.8936 20.3692 22.7026 19.599 21.9323C18.5983 20.9317 18.6126 19.305 19.6306 18.322L20.0515 17.9157C20.6576 17.3305 21 16.5241 21 15.6815V13.0044L21 13V8H27ZM27 40L27 32.3182C27 31.4757 27.3423 30.6693 27.9484 30.0841L28.3693 29.6777C29.3873 28.6948 29.4015 27.0681 28.4009 26.0675C27.6306 25.2972 26.4538 25.1062 25.4795 25.5934L25.2742 25.696C24.472 26.0971 23.5278 26.0971 22.7257 25.696L22.5204 25.5934C21.546 25.1062 20.3692 25.2972 19.599 26.0674C18.5983 27.0681 18.6126 28.6948 19.6306 29.6777L20.0515 30.084C20.6576 30.6693 21 31.4757 21 32.3183V34.6623L21 34.6667V40H27ZM10 24C10 29.9704 13.7373 35.0679 19 37.0808V40H9C8.44772 40 8 39.5523 8 39V9C8 8.44772 8.44771 8 9 8H19V10.9193C13.7373 12.9321 10 18.0296 10 24Z" fill="black"/>
</svg>

<svg
  xmlns="http://www.w3.org/2000/svg"
  width="24"
  height="24"
  viewBox="0 0 24 24"
  fill="none"
  stroke="currentColor"
  stroke-width="2"
  stroke-linecap="round"
  stroke-linejoin="round"
>
  <path
    fill-rule="evenodd"
    d="M6 9a3 3 0 0 1 3-3h30a3 3 0 0 1 3 3v30a3 3 0 0 1-3 3H9a3 3 0 0 1-3-3zm32 15c0-5.97-3.737-11.068-9-13.08V8h10a1 1 0 0 1 1 1v30a1 1 0 0 1-1 1H29v-2.92c5.263-2.012 9-7.11 9-13.08M27 8v7.682c0 .842.342 1.649.948 2.234l.421.406a2.53 2.53 0 0 1-2.89 4.084l-.205-.102a2.85 2.85 0 0 0-2.548 0l-.206.102a2.53 2.53 0 0 1-2.89-4.084l.422-.406A3.1 3.1 0 0 0 21 15.68V8zm0 32v-7.682c0-.842.342-1.649.948-2.234l.421-.406a2.53 2.53 0 0 0-2.89-4.085l-.205.103a2.85 2.85 0 0 1-2.548 0l-.206-.103a2.53 2.53 0 0 0-2.89 4.085l.422.406c.606.585.948 1.392.948 2.234V40zM10 24c0 5.97 3.737 11.068 9 13.08V40H9a1 1 0 0 1-1-1V9a1 1 0 0 1 1-1h10v2.92c-5.263 2.012-9 7.11-9 13.08"
    clip-rule="evenodd"
  />
</svg>
